icons/svg/flag-variant.svg

<svg xmlns="http://www.w3.org/2000/svg" version="1.1" baseProfile="full" width="24" height="24" viewBox="0 0 24.00 24.00" xml:space="preserve"><path fill="#000" fill-opacity="1" stroke-width=".2" stroke-linejoin="round" d="M6 3c.552 0 1 .448 1 1v.875C8.063 4.437 9.5 4 11 4c3 0 3 2 5 2 3 0 4-2 4-2v8s-1 2-4 2-3-2-5-2c-3 0-4 2-4 2v7H5V4c0-.552.448-1 1-1z"/></svg>

﻿<?xml version="1.0" encoding="utf-8"?>
<!DOCTYPE svg PUBLIC "-//W3C//DTD SVG 1.1//EN" "http://www.w3.org/Graphics/SVG/1.1/DTD/svg11.dtd">
<svg xmlns="http://www.w3.org/2000/svg" xmlns:xlink="http://www.w3.org/1999/xlink" version="1.1" baseProfile="full" width="24" height="24" viewBox="0 0 24.00 24.00" enable-background="new 0 0 24.00 24.00" xml:space="preserve">
	<path fill="#000000" fill-opacity="1" stroke-width="0.2" stroke-linejoin="round" d="M 6,3C 6.55229,3 7,3.44771 7,4L 7,4.875C 8.0625,4.4375 9.5,4 11,4C 14,4 14,6 16,6C 19,6 20,4 20,4L 20,12C 20,12 19,14 16,14C 13,14 13,12 11,12C 8,12 7,14 7,14L 7,21L 5,21L 5,4C 5,3.44771 5.44771,3 6,3 Z "/>
</svg>
